X: 1
T: The New Custom House
R: reel
M: 4/4
L: 1/8
K: Dmix
A2DE FGAB|cAGE DEFG|A2DE FGAB|cGeG dcAG|
A2DE FGAB|cAGE DEFG|ADdD FGAB|cAGE AD~D2:|
|:Add^c d2cd|ed^cd efge|Add^c d2cd|eaag ed^cd|
Add^c d2cd|ed^cd efgb|a2ba ge^cd|eaag ed^cd:|


Tune 175	Setting 23266

